symbols/web/restaurant/materialsymbolsrounded/restaurant_wght100gradN25_40px.svg

<svg xmlns="http://www.w3.org/2000/svg" height="40" width="40"><path d="M28.375 35.542q-.208 0-.354-.146t-.146-.354V22.208h-1.417q-.958 0-1.646-.687-.687-.688-.687-1.604v-8.459q0-2.5 1.208-4.479Q26.542 5 28.875 4.542v30.5q0 .208-.146.354t-.354.146Zm-15.042 0q-.208 0-.354-.146t-.146-.354v-14.5Q10.917 20.417 9.604 19q-1.312-1.417-1.312-3.5V4.917q0-.167.146-.313.145-.146.354-.146.208 0 .333.146.125.146.125.313V15.5h3.583V4.917q0-.167.146-.313t.354-.146q.167 0 .313.146t.146.313V15.5h3.541V4.917q0-.167.146-.313t.354-.146q.209 0 .334.146.125.146.125.313V15.5q0 2.083-1.313 3.5-1.312 1.417-3.187 1.542v14.5q0 .208-.146.354t-.313.146Z"/></svg>

<svg xmlns="http://www.w3.org/2000/svg" height="40" width="40"><path d="M28.375 35.542Q28.167 35.542 28.021 35.396Q27.875 35.25 27.875 35.042V22.208H26.458Q25.5 22.208 24.812 21.521Q24.125 20.833 24.125 19.917V11.458Q24.125 8.958 25.333 6.979Q26.542 5 28.875 4.542V35.042Q28.875 35.25 28.729 35.396Q28.583 35.542 28.375 35.542ZM13.333 35.542Q13.125 35.542 12.979 35.396Q12.833 35.25 12.833 35.042V20.542Q10.917 20.417 9.604 19Q8.292 17.583 8.292 15.5V4.917Q8.292 4.75 8.438 4.604Q8.583 4.458 8.792 4.458Q9 4.458 9.125 4.604Q9.25 4.75 9.25 4.917V15.5H12.833V4.917Q12.833 4.75 12.979 4.604Q13.125 4.458 13.333 4.458Q13.5 4.458 13.646 4.604Q13.792 4.75 13.792 4.917V15.5H17.333V4.917Q17.333 4.75 17.479 4.604Q17.625 4.458 17.833 4.458Q18.042 4.458 18.167 4.604Q18.292 4.75 18.292 4.917V15.5Q18.292 17.583 16.979 19Q15.667 20.417 13.792 20.542V35.042Q13.792 35.25 13.646 35.396Q13.5 35.542 13.333 35.542Z"/></svg>
